X:17
T:Rosc Catha Na Mumhan
T:Battle Cry Of Munster, The
R:march
Z:id:hn-march-17
M:2/4
L:1/16
K:Ador
d2 | e>def g2ge | d>cBA G2AB | cd/c/BA edcB | A>BAG E3d |
e>def g2ge | d>cBA G2AB | cd/c/BA edcB | A>BAG A2 :|
|: ag | ea2a agab | a>bag e2ed | ea2a agab | a>bag e2ef |
g>fga g2ge | d>cBA G2AB | cd/c/BA edcB | A>BAG A2 :|
<end>
<start>
